public/images/logos/sdks/hono.svg

<svg xmlns="http://www.w3.org/2000/svg" width="46" height="59" viewBox="0 0 46 59" fill="none"><g clip-path="url(#clip0_531_7528)"><path opacity="0.993" d="M23.9052 0.00899164C24.0614 -0.0110867 24.1992 0.0282905 24.3186 0.127123C28.7123 5.48954 32.8469 11.0417 36.7224 16.7837C39.5917 21.1036 42.033 25.6713 44.0466 30.4869C47.2623 39.0637 45.5887 46.5257 39.026 52.8728C33.2839 57.7259 26.6685 59.616 19.1799 58.5431C10.2288 56.7181 4.14492 51.5401 0.928617 43.0088C0.0908405 40.2315 -0.184796 37.3963 0.101697 34.5034C0.578759 29.5238 1.76007 24.7197 3.64564 20.0913C4.43132 18.2029 5.45518 16.4704 6.71706 14.8936C7.74657 16.1198 8.73096 17.3799 9.67034 18.6738C10.1053 19.1285 10.5581 19.5616 11.0289 19.9732C14.6221 12.8423 18.9143 6.1876 23.9052 0.00899164Z" fill="#FF5B11"/><path d="M23.0809 9.57617C27.4155 14.6038 31.3335 19.9591 34.8349 25.6421C35.9327 27.5225 36.8383 29.4914 37.552 31.5486C39.0385 37.3971 37.4438 42.2209 32.7676 46.0197C28.2451 49.2021 23.2836 50.1471 17.8831 48.8549C12.0593 47.0477 8.69257 43.1296 7.78284 37.1008C7.56205 35.1999 7.75898 33.3492 8.3735 31.5486C9.2498 29.3234 10.313 27.197 11.563 25.1695C12.7444 23.4369 13.9257 21.7044 15.107 19.9717C17.7905 16.5211 20.4484 13.056 23.0809 9.57617Z" fill="#FF9758"/></g><defs><clipPath id="clip0_531_7528"><rect width="45.6406" height="58.8336" fill="white"/></clipPath></defs></svg>

<svg xmlns="http://www.w3.org/2000/svg" width="46" height="59" fill="none"><g clip-path="url(#a)"><path fill="#ff5b11" d="M23.905.009q.234-.03.414.118a224 224 0 0 1 12.403 16.657 81.6 81.6 0 0 1 7.325 13.703q4.823 12.866-5.021 22.386-8.614 7.28-19.846 5.67Q5.753 55.805.929 43.01a21.8 21.8 0 0 1-.827-8.506 50.9 50.9 0 0 1 3.544-14.412 21.5 21.5 0 0 1 3.071-5.197 68 68 0 0 1 2.953 3.78q.652.681 1.359 1.3A111.6 111.6 0 0 1 23.905.008" opacity=".993"/><path fill="#ff9758" d="M23.08 9.576a125 125 0 0 1 11.755 16.066 33.4 33.4 0 0 1 2.717 5.907q2.23 8.773-4.784 14.47-6.784 4.774-14.885 2.836-8.735-2.71-10.1-11.754a12.5 12.5 0 0 1 .59-5.552 40 40 0 0 1 3.19-6.38l3.544-5.197a982 982 0 0 0 7.974-10.396"/></g><defs><clipPath id="a"><path fill="#fff" d="M0 0h45.641v58.834H0z"/></clipPath></defs></svg>
